X:30
T:B\"ol-Olle
R:schottis
H:efter Tros Olof Olsson
A:Dalarna
O:Sweden
Z:id:hn-schottis-30
M:C|
K:Bm
Bcde f2f2|{fg}f2ed B4|cdcA c2c2|Bcdc B4|
Bcde f2f2|{fg}f2ed B4|cdcA c2c2|Bcdc B4:|
K:D
|:A2fe d2AF|G2G2 GBed|c2c2 cAfe|d2d2 d4|
A2fe d2AF|G2G2 GBed|c2c2 cAfe|d2d2 d4:|
